X:635
T: IM SOMMER IST GUT WANDERN
N: E0584A
O: Europa, Mitteleuropa, Deutschland; Oesterreich, Boehmen
R: Liebes - Lied
M: 6/8
L: 1/16
K: Bb
F2 | B4c2d2c2B2 | c2d2e2d2z2
e2 | d4c2B4d2 | cBA2G2F4
B2 | c2B2c2c2B2c2 | c4g2f4
d2 | e4d2c4B2 | F2G2A2B4
d2 | e4d2c4B2 | dcB2A2B4

